X: 844
T: Alborada D'A Allunquía
R: reel
M: 4/4
K: Gmajor
~g3g fgaf|~g3f ~e3f|~g3f gfag|1 d6 Bd:|2 d6 ed||
|:cBAB cA dc|BAGA AG cB|1 AGFA cBcA|d6 ed:|2 AGFA dcBA|G6 DG||
|:A2 EA B2 GB|c2 Gc d4|~e3f gf ge|d6 G2|
A>A A2 B>B B2|c>c c2 d4|~A3B cAFA|1 G6 DG:|2 G6 Bd||
|:~f3a fafa|~f3a fafa|~g3a gaga|1 ,3 ~g3a gaga:|2 ,4 ~g3a gfed||
~c3e cece|~c3F GABc|~B3d BdBd|~B3E FGAB|
~A3d AdAd|~A3F GABc|~B3G ABcd|~c3F GABc|
~B3E FGAB|~A3B ~G3B|~A3B ~G3B|~A3B AGFE|
[2 DFGA Bcde:|4 D8||

